X: 1
T: Boys Of Ballysodare, The
M: 4/4
L: 1/8
R: reel
K: Gmaj
e|dG~G2 dGeG|dBGA BAAe|dGGB dedB|AcBA GED2|
dG~G2 dGeG|dBGA BAAd|Bdd2 eBdB|AcBA GED|]
f|g3a bgaf|gfga bgef|g3a bgaf|gfed Bdef|
g3a bgaf|gfga bgeg|bgaf gedB|AcBA GEDd|]
Bdd2 Bdgd|Bdgd BAAc|Bddg eBdB|AcBA GEDd|
Bdd2 Bdgd|Bdgd BABd|eB~B2 eBdB|AcBA GED|]
